X:142
T:Brave Corsicans, The
M:6/8
L:1/8
B:Thompson's Compleat Collection of 200 Favourite Country Dances, vol. 3 (London, 1773)
Z:Transcribed and edited by Flynn Titford-Mock, 2007
Z:abc's:AK/Fiddler's Companion
K:A
E | CEA cBA | DFB dcB | Eec BAG | AED CB,A, | CEA cBA | Bc^d efg | agf ef^d | e3 e2 :|
|: e | ABc def | =gec d2d | Bcd efg | af^d e2E | [Cc]EA DFd | Ece Fdf | edc BAG | A3 A2 :|

